X:1
T:Title
%%score { ( 1 3 ) | ( 2 4 ) }
L:1/8
Q:1/4=116
M:4/4
K:Ab
V:1 treble nm="Grand Piano"
V:3 treble 
V:2 bass 
V:4 bass 
V:1
 E2 E2 F2 G2 | A4 E2 (3EAB | c2 c2 B2 B2 | [CA]6 z2 | A2 F2 G2 A2 | B3 G E2 F2 | %6
w: Chas.~H.~Gabriel * * *||||||
 G2 A2 [EG]2 [=DF]2 | E6 z2 | e2 e2 d2 c2 | d4 d2 (3EGB | d2 d2 c2 B2 | c6 (3EAc | e2 e2 d2 c2 | %13
w: |||||||
 B2 c2 d2 B2 | A2 A2 A2 G2 | [CA]6 z2 | .[CE]2 E2 .[DE]2 .E2 | z4 E4 | %18
w: |||||
 [A,B,=D]2 [B,DF]2 [B,EG]2 [C=EG]2 | [CFA]2 [FAB]2 [EGB]4 | [EAe]2 [Ee]2 [Ed]2 [Ec]2 | %21
w: |||
 [FB]2 [Ec]2 [Fd]4 | [Fc]2 [FB]2 A2 A2 | A2 G2 [CA]4 |] %24
w: |||
V:2
 E,2 E,2 F,2 G,2 | A,4 E,2 z2 | [E,A,E]2 [E,A,E]2 [E,G,D]2 [E,G,D]2 | [A,,A,]6 z2 | %4
 [A,B,=D]2 [A,B,D]2 [G,B,D]2 [F,B,D]2 | [E,G,E]3 [E,B,E] [G,B,]2[K:treble] [A,CE]2 | %6
 [B,E]2 [B,F]2[K:bass] [B,,B,]2 [B,,A,]2 | [E,G,]6 z2 | [E,CE]2 [E,CE]2 [E,B,E]2 [E,=A,E]2 | %9
 [E,B,E]4 [E,B,E]2 z2 | [E,B,E]2 [E,B,E]2 [E,A,E]2 [E,G,E]2 | [A,E]6 z2 | %12
 [A,CE]2 [A,CE]2 [G,B,E]2 [A,E]2 | z4 B,4 | [E,CE]2 [E,_C=D]2 [E,B,_D]2 [E,B,D]2 | [A,,A,]6 z2 | %16
 .[A,,A,]2 .[C,A,]2 .[B,,G,]2 .[D,G,B,]2 | .[C,A,]2 .[A,C]2 [G,B,]F, E,2 | F,2 B,,2 E,2 C,2 | %19
 F,2 =D,2 E,2 _D,2 | C,2 [B,,G,]2 [B,,G,]2 [A,,A,]2 | [D,A,]2 [C,A,]2 [B,,B,]4 | %22
 [C,=A,]2 [D,B,]2 [E,CE]2 [E,_C=D]2 | [E,B,D]2 [E,B,D]2 [A,,A,]4 |] %24
V:3
 x8 | x8 | x8 | x8 | x8 | x8 | x8 | x8 | x8 | x8 | x8 | x8 | x8 | F4 F4 | x8 | x8 | x8 | %17
 .E2 .E2 z A, G,2 | x8 | x8 | x8 | x8 | x8 | x8 |] %24
V:4
 x8 | x8 | x8 | x8 | x8 | x6[K:treble] x2 | x4[K:bass] x4 | x8 | x8 | x8 | x8 | x8 | x8 | %13
 [D,A,]2 [C,=A,]2 B,,2 D,2 | x8 | x8 | x8 | x8 | x8 | x8 | x8 | x8 | x8 | x8 |] %24

